X:1
T:Christmas Day Joyous
T:Christmas Day Joyous
T:John Victor, transl. by John Azary
T:Public Domain Courtesy of the Cyber Hymnal™
T:Public Domain Courtesy of the Cyber Hymnal™
C:John Victor, transl. by John Azary
Z:Public Domain
Z:Courtesy of the Cyber Hymnal™
%%score ( 1 2 ) ( 3 4 )
L:1/8
Q:1/4=90
M:6/8
K:D
V:1 treble 
V:2 treble 
V:3 bass 
V:4 bass 
V:1
 D"^Vivace"[DF][DG] | [DA]2 [FA] [GB][Gc][Gd] | [Fd]2 [FA] [EA][EG][DF] | %3
w: 1.~Christ- mas day|joy- ous, feast of all|peo- ples Heav- en and|
w: 2.~Beth- le- hem’s|star with ra- di- ance|beam- ing Fills hu- man|
w: 3.~In ad- o-|ra- tion wi- dows and|or- phans, Whose hearts are|
w: 4.~Joy we be-|hold on earth and in|Heav- en Won- der- ful|
 [DB]2 [^DB] [EB][EG][=DF] | [CE]3 [CE][CF][CE] | [DA]2 [DF] [CA][CB][CA] | %6
w: earth re- sound with glad|praise. An- gels de-|scend- ing sing forth His|
w: hearts with heav- en- ly|mirth, God’s lov- ing|mes- sage brings new as-|
w: bur- dened, turn un- to|Heav’n, In faith and|hope and love they can|
w: Yule- tide, bless- ings from|Him, Joy ev- er-|last- ing glad- den all|
 [Dd]2 [DA] [^DB][Dc][DB] | [Ee]2 [^Gd] [Gd][Ac][EB] | [EA]3 [EA][EB][Ec] | %9
w: glo- ry Bring- ing us|faith, hope, love, all our|days— Bring- ing us|
w: sur- ance So let the|world pro- claim Je- sus’|birth— So let the|
w: pray now Since Je- sus|Sav- ior is to them|giv’n— Since Je- sus|
w: hearts now Bring to the|world peace, good- will to|men— Bring to the|
 ([DA][Af])[Fd] [Ge][GB][Gc] | [Fd]3 |] %11
w: faith, * hope, love, all our|days.|
w: world * pro- claim Je- sus’|birth.|
w: Sav- * ior is to them|giv’n.|
w: world * peace, good- will to|men.|
V:2
 D x2 | x6 | x6 | x6 | x6 | x6 | x6 | x6 | x6 | x6 | x3 |] %11
V:3
 [D,F,][D,A,][E,A,] | [F,A,]2 [D,D] [G,D][G,C][G,B,] | [D,A,]2 [D,D] [C,A,][C,A,][C,A,] | %3
 G,2 [F,A,] [E,=G,][G,B,][^G,B,] | [A,C]3 [G,A,][G,A,][G,A,] | [F,A,]2 A, [G,A,][G,A,][G,A,] | %6
 [F,A,]2 [F,A,] [F,A,][F,A,][F,A,] | [E,^G,]2 [E,B,] [E,B,][F,A,][G,B,] | [A,C]3 [G,C][G,C][G,C] | %9
 D2 [B,D] [G,B,][E,E][A,E] | [D,D]3 |] %11
V:4
 x3 | x6 | x6 | ^G,2 x4 | x6 | x2 A, x3 | x6 | x6 | x6 | (F,D,) x4 | x3 |] %11

